ios/assets/icons/dog-park-15.svg

<svg xmlns="http://www.w3.org/2000/svg" viewBox="0 0 21 21" height="21" width="21"><title>dog-park-15.svg</title><rect fill="none" x="0" y="0" width="21" height="21"></rect><path fill="#ffffff" transform="translate(3 3)" d="M 10.300781 1.2207031 C 9.9144812 1.2207031 9.6 1.2 9.5 2 L 9.0996094 4.5214844 L 11.5 6.5 L 13.5 6.5 C 14.9 6.5 15 5.5410156 15 5.5410156 L 13.099609 3.3222656 C 12.399609 2.6222656 11.7 2.5 11 2.5 L 11 2 C 11 2 11.067481 1.2206031 10.300781 1.2207031 z M 4.75 1.5 C 4.75 1.5 3.7992187 1.5206031 3.1992188 1.7207031 C 2.5992187 1.9207031 2 2.6210938 2 3.6210938 L 2 7.5214844 C 2 9.2214844 1.3 9.5 1 9.5 C 1 9.5 0 9.5214844 0 10.521484 L 0 12.720703 C 0 12.720703 0.00078125 13.521484 0.80078125 13.521484 L 1 13.521484 L 1.5 13.521484 L 2 13.521484 L 2 13.021484 L 2 12.822266 C 2 12.422266 1.8 12.221094 1.5 12.121094 L 1.5 11.021484 C 2.5 11.021484 2.6 10.820703 3 10.720703 L 3.5507812 12.917969 C 3.6507813 13.217969 3.7507813 13.417578 4.0507812 13.517578 L 5.0507812 13.517578 L 6 13.5 L 6 12.699219 C 6 12.022819 5 12 5 12 L 5 9.5 L 8.5 9.5 L 9.1992188 12.121094 C 9.5992188 13.521094 10.5 13.5 10.5 13.5 L 11 13.5 L 12 13.5 L 12 12.699219 C 12 11.987419 11 12 11 12 L 11.099609 7.921875 L 8 5.5 L 3.5 5.5 L 3.5 3.5 C 3.5 3.1 3.7765 3.0053 4 3 C 4.4941 2.9882 4.75 3 4.75 3 C 5.1642 3 5.5 2.6642 5.5 2.25 C 5.5 1.8358 5.1642 1.5 4.75 1.5 z M 11.75 4 C 11.8881 4 12 4.1119 12 4.25 C 12 4.3881 11.8881 4.5 11.75 4.5 C 11.6119 4.5 11.5 4.3881 11.5 4.25 C 11.5 4.1119 11.6119 4 11.75 4 z " style="stroke-linejoin:round;stroke-miterlimit:4;" stroke="#ffffff" stroke-width="2"></path><path fill="#8aa5bd" transform="translate(3 3)" d="M 10.300781 1.2207031 C 9.9144812 1.2207031 9.6 1.2 9.5 2 L 9.0996094 4.5214844 L 11.5 6.5 L 13.5 6.5 C 14.9 6.5 15 5.5410156 15 5.5410156 L 13.099609 3.3222656 C 12.399609 2.6222656 11.7 2.5 11 2.5 L 11 2 C 11 2 11.067481 1.2206031 10.300781 1.2207031 z M 4.75 1.5 C 4.75 1.5 3.7992187 1.5206031 3.1992188 1.7207031 C 2.5992187 1.9207031 2 2.6210938 2 3.6210938 L 2 7.5214844 C 2 9.2214844 1.3 9.5 1 9.5 C 1 9.5 0 9.5214844 0 10.521484 L 0 12.720703 C 0 12.720703 0.00078125 13.521484 0.80078125 13.521484 L 1 13.521484 L 1.5 13.521484 L 2 13.521484 L 2 13.021484 L 2 12.822266 C 2 12.422266 1.8 12.221094 1.5 12.121094 L 1.5 11.021484 C 2.5 11.021484 2.6 10.820703 3 10.720703 L 3.5507812 12.917969 C 3.6507813 13.217969 3.7507813 13.417578 4.0507812 13.517578 L 5.0507812 13.517578 L 6 13.5 L 6 12.699219 C 6 12.022819 5 12 5 12 L 5 9.5 L 8.5 9.5 L 9.1992188 12.121094 C 9.5992188 13.521094 10.5 13.5 10.5 13.5 L 11 13.5 L 12 13.5 L 12 12.699219 C 12 11.987419 11 12 11 12 L 11.099609 7.921875 L 8 5.5 L 3.5 5.5 L 3.5 3.5 C 3.5 3.1 3.7765 3.0053 4 3 C 4.4941 2.9882 4.75 3 4.75 3 C 5.1642 3 5.5 2.6642 5.5 2.25 C 5.5 1.8358 5.1642 1.5 4.75 1.5 z M 11.75 4 C 11.8881 4 12 4.1119 12 4.25 C 12 4.3881 11.8881 4.5 11.75 4.5 C 11.6119 4.5 11.5 4.3881 11.5 4.25 C 11.5 4.1119 11.6119 4 11.75 4 z "></path></svg>

<svg xmlns="http://www.w3.org/2000/svg" viewBox="0 0 21 21" height="21" width="21"><title>dog-park-15.svg</title><rect fill="none" x="0" y="0" width="21" height="21"></rect><path fill="rgba(255,255,255,0.75)" transform="translate(3 3)" d="M13.1,3.3216C12.4,2.6216,11.7,2.5,11,2.5V2c0,0,0.0667-0.7785-0.7-0.7784
		C9.9137,1.2216,9.6,1.2,9.5,2L9.1,4.5215L11.5,6.5h2c1.4,0,1.5-0.9588,1.5-0.9588L13.1,3.3216z M11.75,4.5
		c-0.1381,0-0.25-0.1119-0.25-0.25S11.6119,4,11.75,4S12,4.1119,12,4.25S11.8881,4.5,11.75,4.5z" style="stroke-linejoin:round;stroke-miterlimit:4px;" stroke="rgba(255,255,255,0.75)" stroke-width="2"></path><path fill="rgba(255,255,255,0.75)" transform="translate(3 3)" d="M11,12l0.1-4.0784L8,5.5H3.5v-2C3.5,3.1,3.7765,3.0053,4,3c0.4941-0.0118,0.75,0,0.75,0
		C5.1642,3,5.5,2.6642,5.5,2.25S5.1642,1.5,4.75,1.5c0,0-0.95,0.0215-1.55,0.2216c-0.6,0.2-1.2,0.9-1.2,1.9v3.9
		C2,9.2216,1.3,9.5,1,9.5c0,0-1,0.0215-1,1.0215v2.2c0,0,0,0.8,0.8,0.8H1h0.5H2v-0.5v-0.2c0-0.4-0.2-0.6-0.5-0.7v-1.1
		c1,0,1.1-0.2,1.5-0.3l0.55,2.1961c0.1,0.3,0.2,0.5,0.5,0.6h1L6,13.5v-0.8C6,12.0236,5,12,5,12V9.5h3.5l0.7,2.6216
		c0.4,1.4,1.3,1.3784,1.3,1.3784H11h1v-0.8C12,11.9882,11,12,11,12z" style="stroke-linejoin:round;stroke-miterlimit:4px;" stroke="rgba(255,255,255,0.75)" stroke-width="2"></path><path fill="#268000" transform="translate(3 3)" d="M13.1,3.3216C12.4,2.6216,11.7,2.5,11,2.5V2c0,0,0.0667-0.7785-0.7-0.7784
		C9.9137,1.2216,9.6,1.2,9.5,2L9.1,4.5215L11.5,6.5h2c1.4,0,1.5-0.9588,1.5-0.9588L13.1,3.3216z M11.75,4.5
		c-0.1381,0-0.25-0.1119-0.25-0.25S11.6119,4,11.75,4S12,4.1119,12,4.25S11.8881,4.5,11.75,4.5z"></path><path fill="#268000" transform="translate(3 3)" d="M11,12l0.1-4.0784L8,5.5H3.5v-2C3.5,3.1,3.7765,3.0053,4,3c0.4941-0.0118,0.75,0,0.75,0
		C5.1642,3,5.5,2.6642,5.5,2.25S5.1642,1.5,4.75,1.5c0,0-0.95,0.0215-1.55,0.2216c-0.6,0.2-1.2,0.9-1.2,1.9v3.9
		C2,9.2216,1.3,9.5,1,9.5c0,0-1,0.0215-1,1.0215v2.2c0,0,0,0.8,0.8,0.8H1h0.5H2v-0.5v-0.2c0-0.4-0.2-0.6-0.5-0.7v-1.1
		c1,0,1.1-0.2,1.5-0.3l0.55,2.1961c0.1,0.3,0.2,0.5,0.5,0.6h1L6,13.5v-0.8C6,12.0236,5,12,5,12V9.5h3.5l0.7,2.6216
		c0.4,1.4,1.3,1.3784,1.3,1.3784H11h1v-0.8C12,11.9882,11,12,11,12z"></path></svg>
